; generated by Slic3r 0.9.9-dev on 2016-04-20 at 14:01:46

; layer_height = 0.4
; perimeters = 3
; top_solid_layers = 3
; bottom_solid_layers = 3
; fill_density = 0.4
; perimeter_speed = 30
; infill_speed = 60
; travel_speed = 130
; nozzle_diameter = 0.5
; filament_diameter = 3
; extrusion_multiplier = 1
; perimeters extrusion width = 0.53mm
; infill extrusion width = 0.53mm
; solid infill extrusion width = 0.53mm
; top infill extrusion width = 0.53mm
; first layer extrusion width = 0.70mm

G21 ; set units to millimeters
M107
M104 S200 ; set temperature
G28 ; home all axes
G1 Z5 F5000 ; lift nozzle

M109 S200 ; wait for temperature to be reached
G90 ; use absolute coordinates
G92 E0
M82 ; use absolute distances for extrusion
G1 F1800.000 E-1.00000
G92 E0
G1 Z0.350 F7800.000
G1 X89.970 Y89.930
G1 F1800.000 E1.00000
G1 X90.350 Y89.570 F540.000 E1.01703
G1 X91.130 Y88.890 E1.05070
G1 X91.540 Y88.570 E1.06762
G1 X92.010 Y88.240 E1.08630
G1 X92.850 Y87.710 E1.11862
G1 X93.320 Y87.450 E1.13609
G1 X94.160 Y87.040 E1.16651
G1 X94.760 Y86.790 E1.18765
G1 X95.600 Y86.490 E1.21667
G1 X96.120 Y86.330 E1.23437
G1 X96.930 Y86.120 E1.26160
G1 X97.440 Y86.020 E1.27851
G1 X98.150 Y85.910 E1.30188
G1 X98.760 Y85.850 E1.32183
G1 X99.580 Y85.800 E1.34855
G1 X100.390 Y85.790 E1.37491
G1 X101.220 Y85.840 E1.40196
G1 X101.840 Y85.910 E1.42226
G1 X102.550 Y86.020 E1.44564
G1 X103.080 Y86.130 E1.46325
G1 X104.100 Y86.390 E1.49750
G1 X104.590 Y86.550 E1.51427
G1 X105.450 Y86.880 E1.54424
G1 X106.290 Y87.260 E1.57423
G1 X106.750 Y87.490 E1.59097
G1 X107.210 Y87.750 E1.60816
G1 X108.030 Y88.270 E1.63975
G1 X108.900 Y88.920 E1.67508
G1 X109.290 Y89.250 E1.69170
G1 X110.010 Y89.910 E1.72348
G1 X110.390 Y90.300 E1.74120
G1 X110.830 Y90.800 E1.76287
G1 X111.380 Y91.490 E1.79158
G1 X111.820 Y92.130 E1.81684
G1 X112.230 Y92.790 E1.84212
G1 X112.550 Y93.360 E1.86339
G1 X113.110 Y94.540 E1.90589
G1 X113.530 Y95.660 E1.94480
G1 X113.690 Y96.210 E1.96344
G1 X113.950 Y97.300 E1.99990
G1 X114.110 Y98.320 E2.03349
G1 X114.160 Y98.830 E2.05016
G1 X114.200 Y99.730 E2.07947
G1 X114.200 Y100.230 E2.09574
G1 X114.150 Y101.290 E2.13027
G1 X114.020 Y102.280 E2.16275
G1 X113.920 Y102.830 E2.18094
G1 X113.720 Y103.680 E2.20935
G1 X113.590 Y104.140 E2.22490
G1 X113.370 Y104.800 E2.24754
G1 X112.940 Y105.840 E2.28415
G1 X112.720 Y106.310 E2.30104
G1 X112.340 Y107.030 E2.32752
G1 X111.910 Y107.720 E2.35398
G1 X111.430 Y108.410 E2.38132
G1 X111.080 Y108.870 E2.40013
G1 X110.230 Y109.860 E2.44258
G1 X109.860 Y110.230 E2.45961
G1 X109.450 Y110.600 E2.47757
G1 X108.860 Y111.100 E2.50274
G1 X108.450 Y111.420 E2.51966
G1 X107.980 Y111.750 E2.53834
G1 X107.140 Y112.280 E2.57066
G1 X106.670 Y112.540 E2.58813
G1 X105.830 Y112.950 E2.61854
G1 X105.230 Y113.200 E2.63969
G1 X104.390 Y113.500 E2.66871
G1 X103.440 Y113.780 E2.70093
G1 X103.060 Y113.870 E2.71364
G1 X101.840 Y114.080 E2.75392
G1 X101.250 Y114.140 E2.77321
G1 X100.310 Y114.200 E2.80386
G1 X99.580 Y114.190 E2.82761
G1 X98.760 Y114.140 E2.85434
G1 X98.150 Y114.080 E2.87428
G1 X97.440 Y113.970 E2.89766
G1 X96.910 Y113.860 E2.91527
G1 X95.890 Y113.600 E2.94951
G1 X95.400 Y113.440 E2.96628
G1 X94.540 Y113.110 E2.99625
G1 X93.700 Y112.730 E3.02625
G1 X93.240 Y112.500 E3.04298
G1 X92.780 Y112.240 E3.06017
G1 X91.960 Y111.720 E3.09177
G1 X91.090 Y111.070 E3.12710
G1 X90.700 Y110.740 E3.14372
G1 X89.980 Y110.080 E3.17550
G1 X89.600 Y109.690 E3.19321
G1 X89.160 Y109.190 E3.21488
G1 X88.610 Y108.500 E3.24359
G1 X88.170 Y107.860 E3.26886
G1 X87.760 Y107.200 E3.29414
G1 X87.440 Y106.630 E3.31541
G1 X86.880 Y105.450 E3.35790
G1 X86.460 Y104.330 E3.39682
G1 X86.300 Y103.780 E3.41546
G1 X86.040 Y102.690 E3.45192
G1 X85.880 Y101.670 E3.48551
G1 X85.830 Y101.160 E3.50218
G1 X85.790 Y100.250 E3.53182
G1 X85.810 Y99.200 E3.56598
G1 X85.850 Y98.610 E3.58522
G1 X86.050 Y97.300 E3.62834
G1 X86.180 Y96.650 E3.64991
G1 X86.320 Y96.120 E3.66774
G1 X86.580 Y95.310 E3.69542
G1 X86.880 Y94.540 E3.72230
G1 X87.440 Y93.360 E3.76480
G1 X87.760 Y92.790 E3.78607
G1 X88.170 Y92.130 E3.81135
G1 X88.610 Y91.490 E3.83662
G1 X89.160 Y90.800 E3.86532
G1 X89.901 Y90.001 E3.90079
G1 F1800.000 E2.90079
G92 E0
G1 X96.404 Y96.396 F7800.000
G1 F1800.000 E1.00000
G1 X96.825 Y96.019 F540.000 E1.01839
G1 X97.277 Y95.699 E1.03640
G1 X97.591 Y95.517 E1.04820
G1 X98.052 Y95.298 E1.06483
G1 X98.534 Y95.126 E1.08145
G1 X99.035 Y95.002 E1.09827
G1 X99.501 Y94.933 E1.11358
G1 X100.006 Y94.908 E1.13003
G1 X100.559 Y94.940 E1.14804
G1 X100.970 Y95.004 E1.16160
G1 X101.466 Y95.126 E1.17822
G1 X101.948 Y95.298 E1.19485
G1 X102.409 Y95.517 E1.21148
G1 X102.852 Y95.784 E1.22829
G1 X103.230 Y96.064 E1.24361
G1 X103.604 Y96.404 E1.26005
G1 X103.973 Y96.817 E1.27806
G1 X104.219 Y97.153 E1.29162
G1 X104.483 Y97.591 E1.30825
G1 X104.702 Y98.052 E1.32487
G1 X104.874 Y98.534 E1.34150
G1 X104.998 Y99.035 E1.35831
G1 X105.067 Y99.501 E1.37363
G1 X105.091 Y100.006 E1.39007
G1 X105.060 Y100.559 E1.40809
G1 X104.996 Y100.970 E1.42164
G1 X104.874 Y101.466 E1.43827
G1 X104.702 Y101.948 E1.45490
G1 X104.478 Y102.420 E1.47190
G1 X104.233 Y102.829 E1.48740
G1 X103.936 Y103.230 E1.50366
G1 X103.596 Y103.604 E1.52010
G1 X103.183 Y103.973 E1.53811
G1 X102.847 Y104.219 E1.55167
G1 X102.410 Y104.483 E1.56830
G1 X101.948 Y104.702 E1.58492
G1 X101.456 Y104.878 E1.60192
G1 X100.993 Y104.993 E1.61743
G1 X100.499 Y105.067 E1.63368
G1 X99.994 Y105.091 E1.65013
G1 X99.441 Y105.060 E1.66814
G1 X99.030 Y104.996 E1.68170
G1 X98.534 Y104.874 E1.69833
G1 X98.052 Y104.702 E1.71495
G1 X97.580 Y104.478 E1.73195
G1 X97.171 Y104.233 E1.74746
G1 X96.770 Y103.936 E1.76371
G1 X96.396 Y103.596 E1.78016
G1 X96.027 Y103.183 E1.79817
G1 X95.781 Y102.847 E1.81173
G1 X95.517 Y102.409 E1.82835
G1 X95.298 Y101.948 E1.84498
G1 X95.122 Y101.456 E1.86198
G1 X95.007 Y100.993 E1.87748
G1 X94.933 Y100.499 E1.89374
G1 X94.908 Y99.994 E1.91018
G1 X94.940 Y99.441 E1.92820
G1 X95.004 Y99.030 E1.94175
G1 X95.126 Y98.534 E1.95838
G1 X95.298 Y98.052 E1.97501
G1 X95.522 Y97.580 E1.99201
G1 X95.767 Y97.171 E2.00751
G1 X96.064 Y96.770 E2.02377
G1 X96.338 Y96.469 E2.03700
G1 X96.867 Y96.863 F7800.000
G1 X97.236 Y96.534 F540.000 E2.05307
G1 X97.633 Y96.252 E2.06891
G1 X97.904 Y96.094 E2.07913
G1 X98.304 Y95.905 E2.09351
G1 X98.720 Y95.756 E2.10788
G1 X99.152 Y95.649 E2.12237
G1 X99.565 Y95.588 E2.13597
G1 X100.003 Y95.566 E2.15023
G1 X100.489 Y95.594 E2.16607
G1 X100.851 Y95.650 E2.17798
G1 X101.280 Y95.756 E2.19236
G1 X101.696 Y95.905 E2.20673
G1 X102.096 Y96.094 E2.22111
G1 X102.477 Y96.324 E2.23560
G1 X102.812 Y96.573 E2.24919
G1 X103.137 Y96.867 E2.26346
G1 X103.462 Y97.230 E2.27930
G1 X103.678 Y97.526 E2.29121
G1 X103.906 Y97.904 E2.30558
G1 X104.095 Y98.304 E2.31996
G1 X104.244 Y98.720 E2.33434
G1 X104.351 Y99.152 E2.34883
G1 X104.412 Y99.565 E2.36242
G1 X104.434 Y100.003 E2.37669
G1 X104.406 Y100.489 E2.39253
G1 X104.350 Y100.851 E2.40443
G1 X104.244 Y101.280 E2.41881
G1 X104.095 Y101.696 E2.43319
G1 X103.903 Y102.102 E2.44779
G1 X103.686 Y102.463 E2.46149
G1 X103.427 Y102.812 E2.47565
G1 X103.133 Y103.137 E2.48992
G1 X102.770 Y103.462 E2.50576
G1 X102.474 Y103.678 E2.51766
G1 X102.096 Y103.906 E2.53204
G1 X101.696 Y104.095 E2.54642
G1 X101.273 Y104.246 E2.56102
G1 X100.865 Y104.348 E2.57472
G1 X100.435 Y104.412 E2.58888
G1 X99.997 Y104.434 E2.60315
G1 X99.511 Y104.406 E2.61899
G1 X99.149 Y104.350 E2.63089
G1 X98.720 Y104.244 E2.64527
G1 X98.304 Y104.095 E2.65965
G1 X97.898 Y103.903 E2.67425
G1 X97.537 Y103.686 E2.68795
G1 X97.188 Y103.427 E2.70211
G1 X96.863 Y103.133 E2.71638
G1 X96.538 Y102.770 E2.73222
G1 X96.322 Y102.474 E2.74412
G1 X96.094 Y102.096 E2.75850
G1 X95.905 Y101.696 E2.77288
G1 X95.754 Y101.273 E2.78748
G1 X95.652 Y100.865 E2.80118
G1 X95.588 Y100.435 E2.81534
G1 X95.566 Y99.997 E2.82961
G1 X95.594 Y99.511 E2.84545
G1 X95.650 Y99.149 E2.85735
G1 X95.756 Y98.720 E2.87173
G1 X95.905 Y98.304 E2.88611
G1 X96.097 Y97.898 E2.90071
G1 X96.314 Y97.537 E2.91441
G1 X96.573 Y97.188 E2.92857
G1 X96.801 Y96.936 E2.93963
G1 X97.263 Y97.404 F7800.000
G1 X97.646 Y97.048 F540.000 E2.95663
G1 X97.988 Y96.805 E2.97029
G1 X98.218 Y96.672 E2.97894
G1 X98.555 Y96.512 E2.99107
G1 X98.906 Y96.387 E3.00320
G1 X99.269 Y96.296 E3.01537
G1 X99.630 Y96.243 E3.02723
G1 X100.001 Y96.224 E3.03932
G1 X100.420 Y96.248 E3.05299
G1 X100.732 Y96.296 E3.06325
G1 X101.094 Y96.387 E3.07537
G1 X101.445 Y96.512 E3.08750
G1 X101.782 Y96.672 E3.09963
G1 X102.102 Y96.864 E3.11180
G1 X102.395 Y97.082 E3.12366
G1 X102.671 Y97.331 E3.13576
G1 X102.950 Y97.644 E3.14942
G1 X103.136 Y97.899 E3.15968
G1 X103.328 Y98.218 E3.17181
G1 X103.488 Y98.555 E3.18393
G1 X103.613 Y98.906 E3.19606
G1 X103.704 Y99.269 E3.20823
G1 X103.757 Y99.630 E3.22010
G1 X103.776 Y100.001 E3.23219
G1 X103.752 Y100.420 E3.24585
G1 X103.704 Y100.732 E3.25611
G1 X103.613 Y101.094 E3.26824
G1 X103.488 Y101.445 E3.28037
G1 X103.327 Y101.784 E3.29257
G1 X103.139 Y102.098 E3.30447
G1 X102.918 Y102.395 E3.31653
G1 X102.669 Y102.671 E3.32862
G1 X102.356 Y102.950 E3.34228
G1 X102.101 Y103.136 E3.35254
G1 X101.782 Y103.328 E3.36467
G1 X101.445 Y103.488 E3.37680
G1 X101.091 Y103.614 E3.38900
G1 X100.737 Y103.703 E3.40091
G1 X100.370 Y103.757 E3.41296
G1 X99.999 Y103.776 E3.42505
G1 X99.580 Y103.752 E3.43872
G1 X99.268 Y103.704 E3.44897
G1 X98.906 Y103.613 E3.46110
G1 X98.555 Y103.488 E3.47323
G1 X98.216 Y103.327 E3.48543
G1 X97.902 Y103.139 E3.49734
G1 X97.605 Y102.918 E3.50939
G1 X97.329 Y102.669 E3.52148
G1 X97.050 Y102.356 E3.53515
G1 X96.864 Y102.101 E3.54541
G1 X96.672 Y101.782 E3.55753
G1 X96.512 Y101.445 E3.56966
G1 X96.386 Y101.091 E3.58187
G1 X96.297 Y100.737 E3.59377
G1 X96.243 Y100.370 E3.60583
G1 X96.224 Y99.999 E3.61792
G1 X96.248 Y99.580 E3.63158
G1 X96.296 Y99.268 E3.64184
G1 X96.387 Y98.906 E3.65397
G1 X96.512 Y98.555 E3.66610
G1 X96.673 Y98.216 E3.67830
G1 X96.861 Y97.902 E3.69020
G1 X97.197 Y97.477 E3.70785
G1 X97.123 Y96.901 F7800.000
G1 X95.910 Y95.737
G1 X96.270 Y95.416 F540.000 E3.72357
G1 X96.592 Y95.172 E3.73670
G1 X96.928 Y94.951 E3.74978
G1 X97.297 Y94.745 E3.76354
G1 X97.689 Y94.561 E3.77761
G1 X98.092 Y94.407 E3.79165
G1 X98.514 Y94.280 E3.80599
G1 X99.203 Y94.143 E3.82884
G1 X99.782 Y94.093 E3.84776
G1 X100.218 Y94.093 E3.86193
G1 X100.652 Y94.126 E3.87611
G1 X101.184 Y94.209 E3.89362
G1 X101.594 Y94.309 E3.90737
G1 X101.979 Y94.431 E3.92049
G1 X102.354 Y94.579 E3.93362
G1 X102.718 Y94.752 E3.94673
G1 X103.077 Y94.955 E3.96014
G1 X103.439 Y95.194 E3.97423
G1 X103.780 Y95.458 E3.98828
G1 X104.329 Y95.975 E4.01281
G1 X104.674 Y96.382 E4.03017
G1 X105.051 Y96.930 E4.05181
G1 X105.354 Y97.495 E4.07267
G1 X105.524 Y97.896 E4.08685
G1 X105.664 Y98.309 E4.10102
G1 X105.786 Y98.798 E4.11741
G1 X105.855 Y99.195 E4.13054
G1 X105.896 Y99.597 E4.14367
G1 X105.910 Y99.998 E4.15673
G1 X105.894 Y100.431 E4.17084
G1 X105.847 Y100.860 E4.18489
G1 X105.767 Y101.293 E4.19919
G1 X105.664 Y101.691 E4.21257
G1 X105.419 Y102.361 E4.23578
G1 X105.155 Y102.892 E4.25508
G1 X104.832 Y103.404 E4.27478
G1 X104.395 Y103.952 E4.29759
G1 X104.034 Y104.319 E4.31433
G1 X103.730 Y104.584 E4.32746
G1 X103.408 Y104.828 E4.34059
G1 X103.072 Y105.049 E4.35367
G1 X102.703 Y105.255 E4.36743
G1 X102.311 Y105.439 E4.38150
G1 X101.908 Y105.593 E4.39554
G1 X101.486 Y105.720 E4.40989
G1 X100.797 Y105.857 E4.43274
G1 X100.218 Y105.907 E4.45165
G1 X99.782 Y105.907 E4.46582
G1 X99.348 Y105.874 E4.48000
G1 X98.816 Y105.791 E4.49751
G1 X98.406 Y105.691 E4.51126
G1 X98.021 Y105.569 E4.52439
G1 X97.646 Y105.421 E4.53751
G1 X97.282 Y105.248 E4.55062
G1 X96.923 Y105.045 E4.56403
G1 X96.561 Y104.806 E4.57812
G1 X96.220 Y104.542 E4.59217
G1 X95.671 Y104.025 E4.61670
G1 X95.326 Y103.618 E4.63406
G1 X94.949 Y103.070 E4.65570
G1 X94.646 Y102.505 E4.67657
G1 X94.476 Y102.104 E4.69074
G1 X94.336 Y101.691 E4.70491
G1 X94.214 Y101.202 E4.72130
G1 X94.145 Y100.805 E4.73443
G1 X94.104 Y100.403 E4.74756
G1 X94.090 Y100.002 E4.76063
G1 X94.106 Y99.569 E4.77473
G1 X94.153 Y99.140 E4.78878
G1 X94.233 Y98.707 E4.80308
G1 X94.336 Y98.309 E4.81647
G1 X94.581 Y97.639 E4.83967
G1 X94.845 Y97.108 E4.85897
G1 X95.168 Y96.596 E4.87867
G1 X95.409 Y96.277 E4.89167
G1 X95.840 Y95.807 E4.91242
G1 X95.445 Y95.273 F7800.000
G1 X95.855 Y94.906 F540.000 E4.93033
G1 X96.213 Y94.635 E4.94492
G1 X96.587 Y94.389 E4.95948
G1 X96.997 Y94.160 E4.97476
G1 X97.432 Y93.956 E4.99038
G1 X97.880 Y93.785 E5.00599
G1 X98.344 Y93.645 E5.02177
G1 X98.801 Y93.543 E5.03701
G1 X99.554 Y93.447 E5.06170
G1 X100.241 Y93.437 E5.08405
G1 X100.722 Y93.472 E5.09974
G1 X101.325 Y93.567 E5.11961
G1 X101.772 Y93.676 E5.13457
G1 X102.199 Y93.812 E5.14916
G1 X102.616 Y93.976 E5.16375
G1 X103.021 Y94.169 E5.17832
G1 X103.420 Y94.394 E5.19324
G1 X103.821 Y94.659 E5.20887
G1 X104.201 Y94.952 E5.22448
G1 X104.562 Y95.276 E5.24025
G1 X104.805 Y95.523 E5.25154
G1 X105.196 Y95.983 E5.27116
G1 X105.612 Y96.588 E5.29507
G1 X105.948 Y97.215 E5.31820
G1 X106.136 Y97.659 E5.33388
G1 X106.291 Y98.115 E5.34957
G1 X106.430 Y98.664 E5.36799
G1 X106.506 Y99.106 E5.38258
G1 X106.552 Y99.552 E5.39717
G1 X106.567 Y99.999 E5.41172
G1 X106.550 Y100.479 E5.42736
G1 X106.502 Y100.932 E5.44218
G1 X106.409 Y101.433 E5.45873
G1 X106.291 Y101.885 E5.47395
G1 X106.022 Y102.620 E5.49941
G1 X105.728 Y103.214 E5.52099
G1 X105.367 Y103.785 E5.54295
G1 X104.887 Y104.388 E5.56803
G1 X104.483 Y104.800 E5.58681
G1 X104.145 Y105.094 E5.60140
G1 X103.787 Y105.365 E5.61599
G1 X103.413 Y105.611 E5.63055
G1 X103.003 Y105.840 E5.64583
G1 X102.568 Y106.044 E5.66145
G1 X102.120 Y106.215 E5.67706
G1 X101.656 Y106.355 E5.69284
G1 X100.890 Y106.507 E5.71826
G1 X100.241 Y106.563 E5.73944
G1 X99.759 Y106.563 E5.75512
G1 X99.278 Y106.528 E5.77081
G1 X98.675 Y106.433 E5.79068
G1 X98.228 Y106.324 E5.80564
G1 X97.801 Y106.188 E5.82023
G1 X97.384 Y106.024 E5.83482
G1 X96.979 Y105.831 E5.84939
G1 X96.580 Y105.606 E5.86431
G1 X96.179 Y105.341 E5.87994
G1 X95.799 Y105.048 E5.89555
G1 X95.438 Y104.724 E5.91132
G1 X95.195 Y104.477 E5.92261
G1 X94.804 Y104.017 E5.94223
G1 X94.388 Y103.412 E5.96614
G1 X94.052 Y102.785 E5.98927
G1 X93.864 Y102.341 E6.00496
G1 X93.709 Y101.885 E6.02064
G1 X93.570 Y101.336 E6.03906
G1 X93.494 Y100.894 E6.05365
G1 X93.448 Y100.448 E6.06824
G1 X93.433 Y100.001 E6.08279
G1 X93.450 Y99.521 E6.09844
G1 X93.503 Y99.044 E6.11404
G1 X93.591 Y98.567 E6.12980
G1 X93.709 Y98.115 E6.14502
G1 X93.978 Y97.380 E6.17048
G1 X94.272 Y96.786 E6.19206
G1 X94.633 Y96.215 E6.21402
G1 X94.902 Y95.859 E6.22853
G1 X95.376 Y95.342 E6.25135
G1 X94.981 Y94.808 F7800.000
G1 X95.441 Y94.396 F378.000 E6.27144
G1 X95.834 Y94.098 E6.28749
G1 X96.246 Y93.827 E6.30354
G1 X96.696 Y93.575 E6.32034
G1 X97.174 Y93.351 E6.33751
G1 X97.667 Y93.162 E6.35468
G1 X98.174 Y93.010 E6.37191
G1 X98.686 Y92.896 E6.38896
G1 X99.508 Y92.792 E6.41591
G1 X100.264 Y92.780 E6.44053
G1 X100.791 Y92.819 E6.45772
G1 X101.466 Y92.925 E6.47995
G1 X101.949 Y93.043 E6.49613
G1 X102.419 Y93.192 E6.51218
G1 X102.878 Y93.373 E6.52823
G1 X103.324 Y93.585 E6.54427
G1 X103.763 Y93.833 E6.56069
G1 X104.204 Y94.124 E6.57787
G1 X104.621 Y94.447 E6.59504
G1 X105.016 Y94.800 E6.61226
G1 X105.282 Y95.071 E6.62461
G1 X105.718 Y95.583 E6.64650
G1 X106.173 Y96.246 E6.67268
G1 X106.542 Y96.934 E6.69807
G1 X106.749 Y97.421 E6.71527
G1 X106.956 Y98.047 E6.73673
G1 X107.094 Y98.612 E6.75566
G1 X107.208 Y99.507 E6.78501
G1 X107.225 Y100.000 E6.80104
G1 X107.205 Y100.527 E6.81823
G1 X107.148 Y101.052 E6.83540
G1 X107.052 Y101.572 E6.85262
G1 X106.919 Y102.079 E6.86966
G1 X106.626 Y102.880 E6.89739
G1 X106.301 Y103.536 E6.92123
G1 X105.903 Y104.166 E6.94545
G1 X105.379 Y104.823 E6.97280
G1 X104.931 Y105.280 E6.99363
G1 X104.559 Y105.604 E7.00968
G1 X104.166 Y105.902 E7.02573
G1 X103.754 Y106.173 E7.04177
G1 X103.304 Y106.425 E7.05857
G1 X102.826 Y106.649 E7.07574
G1 X102.333 Y106.838 E7.09291
G1 X101.826 Y106.990 E7.11014
G1 X101.468 Y107.074 E7.12210
G1 X100.982 Y107.158 E7.13813
G1 X100.264 Y107.220 E7.16158
G1 X99.736 Y107.220 E7.17877
G1 X99.209 Y107.181 E7.19597
G1 X98.534 Y107.075 E7.21820
G1 X98.051 Y106.957 E7.23437
G1 X97.581 Y106.808 E7.25042
G1 X97.122 Y106.627 E7.26647
